X:1
T:Higher Ground
T:Higher Ground
T:Charles Hutchinson Gabriel
T:Johnson Oatman, Jr., 1898
T:Public Domain Courtesy of the Cyber Hymnal™
C:Charles Hutchinson Gabriel
Z:Public Domain
Z:Courtesy of the Cyber Hymnal™
%%score 1 ( 2 3 )
L:1/8
Q:1/4=93
M:3/4
K:G
V:1 treble 
V:2 bass 
V:3 bass 
V:1
 [B,D][B,D] [B,G] | [DB]3 [DB] [DA][DG] | [CE]3 [EA] [EG][CE] | [B,D]3 [B,G] [DB][DG] | %4
w: 1.~I’m press- ing|on the up- ward|way, New heights I’m|gain- ing ev- ery|
w: 2.~My heart has|no de- sire to|stay Where doubts a-|rise and fears dis-|
w: 3.~I want to|live a- bove the|world, Though Sa- tan’s|darts at me are|
w: 4.~I want to|scale the ut- most|height And catch a|gleam of glo- ry|
 [DA]3 [CD] [B,D][B,G] | [DB]3 [DB] [DA][DG] | [CE]3 [EA] [EG][CE] | [B,D][B,G] [DB]2 [CA]2 | %8
w: day; Still pray- ing|as I’m on- ward|bound, “Lord, plant my|feet on high- er|
w: may; Though some may|dwell where those a-|bound, My prayer, my|aim, is high- er|
w: hurled; For faith has|caught the joy- ful|sound, The song of|saints on high- er|
w: bright; But still I’ll|pray till heav’n I’ve|found, “Lord, plant my|feet on high- er|
 [B,G]3 ||"^Refrain" [B,D][B,G] [DB] [Dd]3 [Dd][Dc][DB] | [Dc]3 D [DF][FA] | [Ac]3 [Ac] [GB][FA] | %12
w: ground.”||||
w: ground.|Lord, lift me up and let me|stand, By faith, on|Heav- en’s ta- ble|
w: ground.||||
w: ground.”||||
 [GB]3 [Dd] [Dd][DB] | [DG]3 [DB] [DA][DG] | [CE]3 [EA] [EG][CE] | [B,D][B,G] [DB]2 [CA]2 | %16
w: ||||
w: land, A high- er|plane than I have|found; Lord, plant my|feet on high- er|
w: ||||
w: ||||
 [B,G]3 |] %17
w: |
w: ground.|
w: |
w: |
V:2
 [G,,G,][G,,G,] [G,,G,] | [G,,G,]3 [G,,G,] [A,,F,][B,,G,] | [C,G,]3 [C,G,] [C,G,][C,G,] | %3
 [G,,G,]3 [G,,G,] [G,,G,][B,,G,] | [D,F,]3 [D,F,] [G,,G,][G,,G,] | %5
 [G,,G,]3 [G,,G,] [A,,F,][B,,G,] | [C,G,]3 [C,G,] [C,G,][C,G,] | [D,G,][D,G,] [D,G,]2 [D,F,]2 | %8
 [G,,G,]3 || G,G, G, [G,B,]3 [G,B,][G,A,]G, | [D,A,]3 [D,F,] [D,A,][D,D] | %11
 [D,D]3 [D,D] [D,D][D,D] | [G,D]3 [G,B,] [G,B,][G,D] | [G,B,]3 [G,,G,] [A,,F,][B,,G,] | %14
 [C,G,]3 [C,G,] [C,G,][C,G,] | [D,G,][D,G,] [D,G,]2 [D,F,]2 | [G,,D,]3 |] %17
V:3
 x3 | x6 | x6 | x6 | x6 | x6 | x6 | x6 | x3 || G,G, G, x6 | x6 | x6 | x6 | x6 | x6 | x6 | x3 |] %17

